X: 7
T: HUNT THE SQUIRREL
S: "COUNTRY DANCES OF TODAY 2", CDSS, May Gadd ed., 1951 p.15
R: hornpipe
Z: 2010 John Chambers <jc:trillian.mit.edu>
N: The note counts in the two parts don't add up.
M: C
L: 1/8
K: G
"A"|: (3DEF | "G"G>B"D"A>F "G"G2D2 | "G"G>B d>e d2 B2 | "G"G>Bd>e d2B>A | "G"G>B"D7"A>F "G"G2 :|
"B"|: "C"e>fg2 "C"e>fg2 | "C"e>fg>a "C"g2e2 | "G"d>ed>c "G"d2B>A | "G"G>B"D7"A>F "G"G2 :|


%%sep 5 1 500

%%sep 1 1 500

